X:3
T:Boatswain's Delight. ThoH.003, The
Q:3/8=100
M:6/8
L:1/8
B:Thompson's Compleat Collection of 120 Favourite Hornpipes.
Z:Village Music Project, Simon Wilson 2016
O:England.
K:Bb
(E/D/C/)|B,2b- bag|fed cBA|G^fg- g=fe|dcB AcF|
Gec Afe|dba gfe|dfB (c/e/d/c/B/A/)|B2B,B,2:|
|:(E/D/C/)|B,2B- BAG|FEDE2(F/E/D/)|C2g- gfe|dcBA2(g/f/e/)|
dba gf=e|fde- edc|dfB (c/e/d/c/B/A/)|B2B,B,2:|

